X:32
T:Gaida Tune
S:Ian McArdle
R:Other
O:Bulgaria 
M:2/4
K:EMix
g2Be g2Be|a2Be a2Be|g2Be f2Bf\
|1 e2GB e2f2 :|2 e8 ||
|:g2Be f2Bf|e2Be a2Be|g2Be f2Bf \
|1 e2GB e2f2 :|2 e8 ||
